base-web-logo.svg

<svg width="711" height="293" viewBox="0 0 711 293" fill="none" xmlns="http://www.w3.org/2000/svg">
<path d="M244 16H303.654C310.334 16 316.548 17.164 322.296 19.4921C328.199 21.665 333.248 24.6915 337.443 28.5716C341.793 32.2965 345.133 36.7975 347.463 42.0745C349.948 47.1962 351.191 52.706 351.191 58.6038C351.191 65.5881 349.327 72.0291 345.599 77.9269C342.026 83.6695 337.21 88.3256 331.151 91.8953C340.472 94.9994 347.929 100.276 353.521 107.726C359.269 115.021 362.143 123.402 362.143 132.869C362.143 139.233 360.9 145.208 358.415 150.796C355.929 156.383 352.434 161.272 347.929 165.463C343.579 169.653 338.375 172.99 332.316 175.473C326.413 177.801 319.966 178.965 312.975 178.965H244V16ZM268.468 36.7199V84.4455H301.79C305.363 84.4455 308.625 83.8247 311.577 82.583C314.684 81.3414 317.325 79.6341 319.5 77.4613C321.675 75.2884 323.384 72.8051 324.626 70.0114C325.869 67.0625 326.491 63.9584 326.491 60.6991C326.491 53.8701 324.16 48.2051 319.5 43.7041C314.995 39.048 309.091 36.7199 301.79 36.7199H268.468ZM309.713 158.246C317.946 158.246 324.626 155.685 329.753 150.563C334.879 145.286 337.443 138.845 337.443 131.24C337.443 127.515 336.744 124.1 335.345 120.996C333.947 117.737 332.005 114.943 329.52 112.615C327.19 110.132 324.316 108.192 320.898 106.795C317.48 105.398 313.752 104.7 309.713 104.7H268.468V158.246H309.713Z" fill="black"/>
<path d="M370.718 146.14C370.718 135.741 374.058 127.593 380.738 121.695C387.573 115.642 397.205 112.227 409.633 111.451L446.684 108.657V100.975C446.684 94.1458 444.587 88.8688 440.392 85.1439C436.198 81.2638 430.139 79.3237 422.216 79.3237C416.468 79.3237 410.953 80.2549 405.671 82.1174C400.39 83.8247 395.263 86.696 390.292 90.7313L379.806 73.7363C386.02 68.4593 392.933 64.5792 400.545 62.0959C408.312 59.4574 416.624 58.1382 425.479 58.1382C432.159 58.1382 438.217 59.0694 443.654 60.9319C449.092 62.7944 453.752 65.5104 457.636 69.0802C461.52 72.4947 464.471 76.6852 466.491 81.6518C468.666 86.4632 469.753 91.8953 469.753 97.9483V151.494C469.753 155.995 472.083 158.246 476.744 158.246H482.803V178.965H471.151C465.403 178.965 460.51 177.646 456.471 175.008C452.587 172.369 449.868 168.722 448.315 164.066C444.276 169.498 439.072 173.766 432.702 176.87C426.333 179.974 419.187 181.526 411.264 181.526C405.361 181.526 399.924 180.673 394.952 178.965C390.137 177.258 385.864 174.852 382.136 171.748C378.563 168.489 375.767 164.687 373.747 160.341C371.728 155.995 370.718 151.261 370.718 146.14ZM393.321 145.907C393.321 151.029 395.418 155.219 399.613 158.478C403.807 161.582 409.245 163.135 415.925 163.135C420.119 163.135 424.08 162.436 427.809 161.039C431.537 159.642 434.799 157.78 437.596 155.452C440.392 152.969 442.567 150.097 444.12 146.838C445.829 143.579 446.684 140.087 446.684 136.362V126.584L413.128 129.377C399.924 130.309 393.321 135.818 393.321 145.907Z" fill="black"/>
<path d="M539.502 181.526C532.201 181.526 525.598 180.517 519.695 178.5C513.792 176.482 508.587 173.766 504.082 170.352C499.733 166.782 496.16 162.591 493.363 157.78C490.567 152.969 488.625 147.769 487.538 142.182H510.141C511.539 149.011 514.879 154.133 520.161 157.547C525.443 160.962 531.812 162.669 539.269 162.669C545.794 162.669 550.843 161.272 554.416 158.478C558.144 155.685 560.008 152.037 560.008 147.536C560.008 140.242 554.571 135.12 543.696 132.171L521.792 126.816C500.354 121.384 489.635 110.21 489.635 93.2922C489.635 87.86 490.645 82.971 492.664 78.6253C494.839 74.2795 497.713 70.5546 501.286 67.4505C505.014 64.3464 509.364 61.9407 514.335 60.2335C519.462 58.5262 525.055 57.6726 531.113 57.6726C538.104 57.6726 544.396 58.6814 549.988 60.6991C555.736 62.7168 560.707 65.5104 564.902 69.0802C569.096 72.4947 572.514 76.6076 575.155 81.419C577.796 86.2303 579.505 91.4297 580.281 97.0171H557.678C556.28 90.1881 552.94 85.0663 547.658 81.6518C542.531 78.2373 536.939 76.53 530.88 76.53C525.132 76.53 520.627 77.9269 517.365 80.7206C514.258 83.359 512.704 86.7735 512.704 90.9641C512.704 98.4139 518.374 103.536 529.715 106.329L550.221 111.684C572.125 117.271 583.078 128.601 583.078 145.674C583.078 150.796 582.068 155.529 580.048 159.875C578.029 164.221 575.077 168.023 571.193 171.283C567.465 174.542 562.882 177.103 557.445 178.965C552.163 180.673 546.182 181.526 539.502 181.526Z" fill="black"/>
<path d="M590.352 119.599C590.352 111.218 591.906 103.303 595.013 95.8531C598.12 88.4032 602.392 81.8846 607.829 76.2972C613.266 70.5546 619.713 66.0537 627.17 62.7944C634.627 59.5351 642.705 57.9054 651.405 57.9054C659.949 57.9054 667.872 59.4574 675.173 62.5616C682.475 65.6657 688.766 70.0114 694.048 75.5988C699.33 81.031 703.447 87.5496 706.398 95.1546C709.35 102.604 710.826 110.753 710.826 119.599V127.282H614.121C614.897 132.093 616.451 136.594 618.781 140.785C621.111 144.82 623.985 148.39 627.403 151.494C630.976 154.443 634.938 156.771 639.287 158.478C643.793 160.186 648.531 161.039 653.502 161.039C667.639 161.039 679.057 155.219 687.756 143.579L704.767 156.15C698.864 164.066 691.562 170.274 682.863 174.775C674.163 179.276 664.376 181.526 653.502 181.526C644.647 181.526 636.336 179.974 628.568 176.87C620.956 173.766 614.276 169.42 608.528 163.833C602.936 158.246 598.508 151.727 595.246 144.277C591.983 136.672 590.352 128.446 590.352 119.599ZM650.939 78.3925C642.084 78.3925 634.316 81.1862 627.636 86.7736C621.111 92.2057 616.762 99.5004 614.587 108.657H687.057C685.038 99.5004 680.688 92.2057 674.008 86.7736C667.483 81.1862 659.793 78.3925 650.939 78.3925Z" fill="black"/>
<path d="M299.2 269.938L312.186 219.8H318.894L302.554 280H296.276L279.334 229.69L262.478 280H256.2L239.86 219.8H246.74L259.726 270.024L276.496 219.8H282.344L299.2 269.938ZM321.775 258.414C321.775 255.318 322.32 252.423 323.41 249.728C324.556 247.033 326.104 244.683 328.054 242.676C330.06 240.612 332.382 239.007 335.02 237.86C337.714 236.656 340.61 236.054 343.706 236.054C346.687 236.054 349.468 236.627 352.048 237.774C354.628 238.863 356.864 240.411 358.756 242.418C360.648 244.367 362.138 246.661 363.228 249.298C364.317 251.935 364.862 254.802 364.862 257.898V260.306H327.968C328.197 262.427 328.77 264.405 329.688 266.24C330.662 268.075 331.866 269.68 333.3 271.056C334.733 272.375 336.396 273.435 338.288 274.238C340.18 274.983 342.186 275.356 344.308 275.356C347.117 275.356 349.668 274.754 351.962 273.55C354.312 272.289 356.319 270.54 357.982 268.304L362.626 271.572C360.562 274.439 357.953 276.703 354.8 278.366C351.646 279.971 348.178 280.774 344.394 280.774C341.183 280.774 338.202 280.201 335.45 279.054C332.698 277.907 330.318 276.331 328.312 274.324C326.305 272.317 324.7 269.967 323.496 267.272C322.349 264.52 321.775 261.567 321.775 258.414ZM343.706 241.472C341.756 241.472 339.922 241.816 338.202 242.504C336.482 243.192 334.934 244.138 333.558 245.342C332.182 246.546 331.006 247.979 330.032 249.642C329.114 251.305 328.484 253.139 328.14 255.146H358.67C358.383 253.139 357.781 251.305 356.864 249.642C356.004 247.979 354.886 246.546 353.51 245.342C352.191 244.138 350.7 243.192 349.038 242.504C347.375 241.816 345.598 241.472 343.706 241.472ZM374.204 219.8H380.396V244.138C382.403 241.615 384.84 239.637 387.706 238.204C390.63 236.771 393.812 236.054 397.252 236.054C400.348 236.054 403.272 236.627 406.024 237.774C408.776 238.921 411.156 240.526 413.162 242.59C415.169 244.597 416.746 246.976 417.892 249.728C419.096 252.423 419.698 255.318 419.698 258.414C419.698 261.567 419.096 264.52 417.892 267.272C416.746 269.967 415.169 272.346 413.162 274.41C411.156 276.417 408.776 277.993 406.024 279.14C403.33 280.287 400.406 280.86 397.252 280.86C393.755 280.86 390.573 280.143 387.706 278.71C384.84 277.277 382.403 275.327 380.396 272.862V280H374.204V219.8ZM380.31 258.414C380.31 260.765 380.74 262.972 381.6 265.036C382.46 267.1 383.636 268.906 385.126 270.454C386.674 271.945 388.452 273.149 390.458 274.066C392.465 274.926 394.615 275.356 396.908 275.356C399.202 275.356 401.352 274.926 403.358 274.066C405.365 273.149 407.114 271.945 408.604 270.454C410.152 268.906 411.356 267.1 412.216 265.036C413.076 262.972 413.506 260.765 413.506 258.414C413.506 256.063 413.076 253.885 412.216 251.878C411.356 249.814 410.152 248.037 408.604 246.546C407.114 244.998 405.365 243.794 403.358 242.934C401.352 242.017 399.202 241.558 396.908 241.558C394.615 241.558 392.465 242.017 390.458 242.934C388.452 243.794 386.674 244.998 385.126 246.546C383.636 248.037 382.46 249.814 381.6 251.878C380.74 253.885 380.31 256.063 380.31 258.414Z" fill="#4E545B"/>
<path d="M100.374 50.7348C100.374 48.3086 100.374 47.0955 100.853 46.5338C101.268 46.0464 101.891 45.7877 102.529 45.838C103.263 45.896 104.119 46.7538 105.83 48.4693L153.416 96.1703C154.603 97.3598 155.196 97.9546 155.418 98.6404C155.614 99.2436 155.614 99.8935 155.418 100.497C155.196 101.183 154.603 101.777 153.416 102.967L105.83 150.668C104.119 152.383 103.263 153.241 102.529 153.299C101.891 153.349 101.268 153.091 100.853 152.603C100.374 152.042 100.374 150.828 100.374 148.402V50.7348Z" fill="black"/>
<path fill-rule="evenodd" clip-rule="evenodd" d="M118.47 8.46982C108.269 -1.73083 91.7308 -1.73082 81.5301 8.46982L7.65048 82.3494C-2.55016 92.5501 -2.55016 109.089 7.65049 119.289L81.5301 193.169C91.7308 203.37 108.269 203.37 118.47 193.169L192.35 119.289C202.55 109.089 202.55 92.5501 192.35 82.3494L118.47 8.46982ZM109.431 35.2348C104.331 30.1345 96.0613 30.1345 90.961 35.2348L35.5513 90.6445C30.451 95.7449 30.451 104.014 35.5513 109.114L90.961 164.524C96.0613 169.624 104.331 169.624 109.431 164.524L164.841 109.114C169.941 104.014 169.941 95.7449 164.841 90.6445L109.431 35.2348Z" fill="black"/>
</svg>

<svg width="711" height="293" fill="none"
  xmlns="http://www.w3.org/2000/svg">
  <path d="M244 16h59.654c6.68 0 12.894 1.164 18.642 3.492 5.903 2.173 10.952 5.2 15.147 9.08 4.35 3.725 7.69 8.226 10.02 13.503 2.485 5.121 3.728 10.631 3.728 16.529 0 6.984-1.864 13.425-5.592 19.323-3.573 5.742-8.389 10.399-14.448 13.968 9.321 3.104 16.778 8.381 22.37 15.831 5.748 7.295 8.622 15.676 8.622 25.143 0 6.364-1.243 12.339-3.728 17.927-2.486 5.587-5.981 10.476-10.486 14.667-4.35 4.19-9.554 7.527-15.613 10.01-5.903 2.328-12.35 3.492-19.341 3.492H244V16Zm24.468 20.72v47.725h33.322c3.573 0 6.835-.62 9.787-1.862 3.107-1.242 5.748-2.949 7.923-5.122a24.537 24.537 0 0 0 5.126-7.45c1.243-2.948 1.865-6.053 1.865-9.312 0-6.829-2.331-12.494-6.991-16.995-4.505-4.656-10.409-6.984-17.71-6.984h-33.322Zm41.245 121.526c8.233 0 14.913-2.561 20.04-7.683 5.126-5.277 7.69-11.718 7.69-19.323 0-3.725-.699-7.14-2.098-10.244-1.398-3.259-3.34-6.053-5.825-8.381-2.33-2.483-5.204-4.423-8.622-5.82-3.418-1.397-7.146-2.095-11.185-2.095h-41.245v53.546h41.245ZM370.718 146.14c0-10.399 3.34-18.547 10.02-24.445 6.835-6.053 16.467-9.468 28.895-10.244l37.051-2.794v-7.682c0-6.83-2.097-12.106-6.292-15.831-4.194-3.88-10.253-5.82-18.176-5.82-5.748 0-11.263.93-16.545 2.793-5.281 1.708-10.408 4.579-15.379 8.614l-10.486-16.995c6.214-5.277 13.127-9.157 20.739-11.64 7.767-2.639 16.079-3.958 24.934-3.958 6.68 0 12.738.931 18.175 2.794 5.438 1.862 10.098 4.578 13.982 8.148 3.884 3.415 6.835 7.605 8.855 12.572 2.175 4.811 3.262 10.243 3.262 16.296v53.546c0 4.501 2.33 6.752 6.991 6.752h6.059v20.719h-11.652c-5.748 0-10.641-1.319-14.68-3.957-3.884-2.639-6.603-6.286-8.156-10.942-4.039 5.432-9.243 9.7-15.613 12.804-6.369 3.104-13.515 4.656-21.438 4.656-5.903 0-11.34-.853-16.312-2.561-4.815-1.707-9.088-4.113-12.816-7.217-3.573-3.259-6.369-7.061-8.389-11.407-2.019-4.346-3.029-9.08-3.029-14.201Zm22.603-.233c0 5.122 2.097 9.312 6.292 12.571 4.194 3.104 9.632 4.657 16.312 4.657 4.194 0 8.155-.699 11.884-2.096 3.728-1.397 6.99-3.259 9.787-5.587 2.796-2.483 4.971-5.355 6.524-8.614 1.709-3.259 2.564-6.751 2.564-10.476v-9.778l-33.556 2.793c-13.204.932-19.807 6.441-19.807 16.53ZM539.502 181.526c-7.301 0-13.904-1.009-19.807-3.026-5.903-2.018-11.108-4.734-15.613-8.148-4.349-3.57-7.922-7.761-10.719-12.572-2.796-4.811-4.738-10.011-5.825-15.598h22.603c1.398 6.829 4.738 11.951 10.02 15.365 5.282 3.415 11.651 5.122 19.108 5.122 6.525 0 11.574-1.397 15.147-4.191 3.728-2.793 5.592-6.441 5.592-10.942 0-7.294-5.437-12.416-16.312-15.365l-21.904-5.355c-21.438-5.432-32.157-16.606-32.157-33.524 0-5.432 1.01-10.321 3.029-14.667 2.175-4.346 5.049-8.07 8.622-11.174 3.728-3.105 8.078-5.51 13.049-7.217 5.127-1.708 10.72-2.561 16.778-2.561 6.991 0 13.283 1.008 18.875 3.026 5.748 2.018 10.719 4.811 14.914 8.381 4.194 3.415 7.612 7.528 10.253 12.339 2.641 4.811 4.35 10.01 5.126 15.598h-22.603c-1.398-6.829-4.738-11.95-10.02-15.365-5.127-3.415-10.719-5.122-16.778-5.122-5.748 0-10.253 1.397-13.515 4.19-3.107 2.639-4.661 6.053-4.661 10.244 0 7.45 5.67 12.572 17.011 15.365l20.506 5.355c21.904 5.587 32.857 16.917 32.857 33.99 0 5.122-1.01 9.855-3.03 14.201-2.019 4.346-4.971 8.148-8.855 11.408-3.728 3.259-8.311 5.82-13.748 7.682-5.282 1.708-11.263 2.561-17.943 2.561ZM590.352 119.599c0-8.381 1.554-16.296 4.661-23.746 3.107-7.45 7.379-13.968 12.816-19.556 5.437-5.742 11.884-10.243 19.341-13.503 7.457-3.259 15.535-4.889 24.235-4.889 8.544 0 16.467 1.552 23.768 4.657 7.302 3.104 13.593 7.45 18.875 13.037 5.282 5.432 9.399 11.95 12.35 19.556 2.952 7.449 4.428 15.598 4.428 24.444v7.683h-96.705c.776 4.811 2.33 9.312 4.66 13.503a44.289 44.289 0 0 0 8.622 10.709 43.537 43.537 0 0 0 11.884 6.984c4.506 1.708 9.244 2.561 14.215 2.561 14.137 0 25.555-5.82 34.254-17.46l17.011 12.571c-5.903 7.916-13.205 14.124-21.904 18.625-8.7 4.501-18.487 6.751-29.361 6.751-8.855 0-17.166-1.552-24.934-4.656-7.612-3.104-14.292-7.45-20.04-13.037-5.592-5.587-10.02-12.106-13.282-19.556-3.263-7.605-4.894-15.831-4.894-24.678Zm60.587-41.207c-8.855 0-16.623 2.794-23.303 8.382-6.525 5.432-10.874 12.726-13.049 21.883h72.47c-2.019-9.157-6.369-16.451-13.049-21.883-6.525-5.588-14.215-8.382-23.069-8.382Z" fill="#000"/>
  <path d="m299.2 269.938 12.986-50.138h6.708l-16.34 60.2h-6.278l-16.942-50.31L262.478 280H256.2l-16.34-60.2h6.88l12.986 50.224 16.77-50.224h5.848l16.856 50.138Zm22.575-11.524c0-3.096.545-5.991 1.635-8.686 1.146-2.695 2.694-5.045 4.644-7.052a21.675 21.675 0 0 1 6.966-4.816c2.694-1.204 5.59-1.806 8.686-1.806 2.981 0 5.762.573 8.342 1.72a19.57 19.57 0 0 1 6.708 4.644c1.892 1.949 3.382 4.243 4.472 6.88 1.089 2.637 1.634 5.504 1.634 8.6v2.408h-36.894c.229 2.121.802 4.099 1.72 5.934a18.894 18.894 0 0 0 3.612 4.816c1.433 1.319 3.096 2.379 4.988 3.182 1.892.745 3.898 1.118 6.02 1.118 2.809 0 5.36-.602 7.654-1.806 2.35-1.261 4.357-3.01 6.02-5.246l4.644 3.268c-2.064 2.867-4.673 5.131-7.826 6.794-3.154 1.605-6.622 2.408-10.406 2.408-3.211 0-6.192-.573-8.944-1.72-2.752-1.147-5.132-2.723-7.138-4.73-2.007-2.007-3.612-4.357-4.816-7.052-1.147-2.752-1.721-5.705-1.721-8.858Zm21.931-16.942c-1.95 0-3.784.344-5.504 1.032a16.05 16.05 0 0 0-4.644 2.838 17.235 17.235 0 0 0-3.526 4.3c-.918 1.663-1.548 3.497-1.892 5.504h30.53c-.287-2.007-.889-3.841-1.806-5.504a14.513 14.513 0 0 0-3.354-4.3 15.211 15.211 0 0 0-4.472-2.838c-1.663-.688-3.44-1.032-5.332-1.032Zm30.498-21.672h6.192v24.338a21.555 21.555 0 0 1 7.31-5.934c2.924-1.433 6.106-2.15 9.546-2.15 3.096 0 6.02.573 8.772 1.72 2.752 1.147 5.132 2.752 7.138 4.816 2.007 2.007 3.584 4.386 4.73 7.138 1.204 2.695 1.806 5.59 1.806 8.686 0 3.153-.602 6.106-1.806 8.858a23.122 23.122 0 0 1-4.73 7.138c-2.006 2.007-4.386 3.583-7.138 4.73-2.694 1.147-5.618 1.72-8.772 1.72-3.497 0-6.679-.717-9.546-2.15a22.011 22.011 0 0 1-7.31-5.848V280h-6.192v-60.2Zm6.106 38.614c0 2.351.43 4.558 1.29 6.622.86 2.064 2.036 3.87 3.526 5.418a19.021 19.021 0 0 0 5.332 3.612c2.007.86 4.157 1.29 6.45 1.29 2.294 0 4.444-.43 6.45-1.29 2.007-.917 3.756-2.121 5.246-3.612a16.62 16.62 0 0 0 3.612-5.418c.86-2.064 1.29-4.271 1.29-6.622s-.43-4.529-1.29-6.536c-.86-2.064-2.064-3.841-3.612-5.332a15.887 15.887 0 0 0-5.246-3.612c-2.006-.917-4.156-1.376-6.45-1.376-2.293 0-4.443.459-6.45 1.376a16.883 16.883 0 0 0-5.332 3.612c-1.49 1.491-2.666 3.268-3.526 5.332-.86 2.007-1.29 4.185-1.29 6.536Z" fill="#4E545B"/>
  <path d="M100.374 50.735c0-2.426 0-3.64.479-4.201a1.995 1.995 0 0 1 1.676-.696c.734.058 1.59.916 3.301 2.631l47.586 47.701c1.187 1.19 1.78 1.785 2.002 2.47a3.005 3.005 0 0 1 0 1.857c-.222.686-.815 1.28-2.002 2.47l-47.586 47.701c-1.711 1.715-2.567 2.573-3.301 2.631a1.994 1.994 0 0 1-1.676-.696c-.479-.561-.479-1.775-.479-4.201V50.735Z" fill="#000"/>
  <path fill-rule="evenodd" clip-rule="evenodd" d="M118.47 8.47c-10.201-10.2-26.74-10.2-36.94 0L7.65 82.35c-10.2 10.2-10.2 26.739 0 36.939l73.88 73.88c10.2 10.201 26.739 10.201 36.94 0l73.88-73.88c10.2-10.2 10.2-26.739 0-36.94L118.47 8.47Zm-9.039 26.765c-5.1-5.1-13.37-5.1-18.47 0l-55.41 55.41c-5.1 5.1-5.1 13.369 0 18.469l55.41 55.41c5.1 5.1 13.37 5.1 18.47 0l55.41-55.41c5.1-5.1 5.1-13.37 0-18.47l-55.41-55.41Z" fill="#000"/>
</svg>
